X: 26290
T: Memories Of Ballymote
R: polka
M: 2/4
K: Gmajor
d/c/|:BG D>D|Ec cA/B/|cE F>E|Dd d/e/d/c/|
BG D>D|Ec cA/B/|c/B/A/G/ F/D/E/F/|1 GB Gd/c/:|2 GB GB/d/||
|:g2 f2|c7/ d/|ee dd|B3 B/c/|
d>e dc|A2 AB/A/|1 G>A Bc|d2 de/f/:|2 Gg fa|g2 g||

